flaticon/interaction/image-7.svg

<svg xmlns="http://www.w3.org/2000/svg" width="32" height="32" viewBox="0 0 24 24">
    <path d="M22.398438 17.53125C22.226562 15.890625 20.859375 14.601562 19.21875 14.601562 18.191406 14.601562 17.226562 15.113281 16.625 15.960938 16.511719 15.941406 16.390625 15.929688 16.273438 15.929688 15.34375 15.929688 14.519531 16.5625 14.246094 17.457031 13.484375 17.90625 13 18.753906 13 19.65625 13 21.058594 14.113281 22.199219 15.484375 22.199219L19.792969 22.199219C19.816406 22.199219 19.84375 22.199219 19.863281 22.195312 19.886719 22.199219 19.910156 22.199219 19.9375 22.199219L21.660156 22.199219C22.949219 22.199219 24 21.125 24 19.804688 24 18.765625 23.34375 17.855469 22.398438 17.53125zM21.660156 21.398438L19.921875 21.398438 19.84375 21.394531 15.484375 21.398438C14.554688 21.398438 13.800781 20.617188 13.800781 19.65625 13.800781 18.992188 14.179688 18.371094 14.765625 18.082031L14.941406 17.996094 14.980469 17.808594C15.113281 17.183594 15.65625 16.730469 16.273438 16.730469 16.410156 16.730469 16.546875 16.753906 16.679688 16.796875L16.992188 16.902344 17.15625 16.617188C17.59375 15.855469 18.363281 15.398438 19.21875 15.398438 20.523438 15.398438 21.601562 16.5 21.617188 17.847656L21.621094 18.175781 21.941406 18.238281C22.671875 18.378906 23.199219 19.039062 23.199219 19.804688 23.199219 20.683594 22.507812 21.398438 21.660156 21.398438zM8.628906 7.226562C8.628906 6 7.628906 5 6.398438 5 5.171875 5 4.171875 6 4.171875 7.226562 4.171875 8.457031 5.171875 9.453125 6.398438 9.453125 7.628906 9.453125 8.628906 8.457031 8.628906 7.226562zM4.972656 7.226562C4.972656 6.441406 5.613281 5.800781 6.398438 5.800781 7.1875 5.800781 7.828125 6.441406 7.828125 7.226562 7.828125 8.015625 7.1875 8.65625 6.398438 8.65625 5.613281 8.65625 4.972656 8.015625 4.972656 7.226562zM20.53125 12.496094C20.691406 12.644531 20.945312 12.632812 21.09375 12.46875 21.242188 12.308594 21.234375 12.054688 21.070312 11.90625L16.269531 7.503906C16.191406 7.433594 16.085938 7.394531 15.980469 7.398438 15.875 7.40625 15.777344 7.453125 15.703125 7.53125L11.785156 11.820312 9.890625 9.921875C9.742188 9.773438 9.5 9.765625 9.34375 9.90625L2.535156 15.898438C2.371094 16.046875 2.355469 16.296875 2.5 16.464844 2.578125 16.554688 2.6875 16.601562 2.800781 16.601562 2.894531 16.601562 2.988281 16.566406 3.0625 16.5L9.589844 10.753906 13.710938 14.875C13.867188 15.03125 14.121094 15.03125 14.277344 14.875 14.433594 14.71875 14.433594 14.46875 14.277344 14.308594L12.351562 12.386719 16.023438 8.367188zM20.53125 12.496094"/>
    <path d="M 10.800781 19.398438 L 0.800781 19.398438 L 0.800781 2.601562 L 22.398438 2.601562 L 22.398438 14.199219 C 22.398438 14.421875 22.578125 14.601562 22.800781 14.601562 C 23.019531 14.601562 23.199219 14.421875 23.199219 14.199219 L 23.199219 2.199219 C 23.199219 1.980469 23.019531 1.800781 22.800781 1.800781 L 0.398438 1.800781 C 0.179688 1.800781 0 1.980469 0 2.199219 L 0 19.800781 C 0 20.019531 0.179688 20.199219 0.398438 20.199219 L 10.800781 20.199219 C 11.019531 20.199219 11.199219 20.019531 11.199219 19.800781 C 11.199219 19.578125 11.019531 19.398438 10.800781 19.398438 Z M 10.800781 19.398438"/>
</svg>

<svg xmlns="http://www.w3.org/2000/svg" width="32" height="32" viewBox="0 0 24 24">
    <path d="M22.398 17.531c-.171-1.64-1.539-2.93-3.18-2.93a3.192 3.192 0 0 0-2.593 1.36 2.1 2.1 0 0 0-.352-.031c-.93 0-1.753.633-2.027 1.527a2.57 2.57 0 0 0-1.246 2.2c0 1.402 1.113 2.542 2.484 2.542h4.309c.023 0 .05 0 .07-.004a.448.448 0 0 0 .075.004h1.722c1.29 0 2.34-1.074 2.34-2.394 0-1.04-.656-1.95-1.602-2.274zm-.738 3.867h-1.738l-.078-.003-4.36.003c-.93 0-1.683-.78-1.683-1.742 0-.664.379-1.285.965-1.574l.175-.086.04-.187c.132-.625.675-1.079 1.292-1.079.137 0 .274.024.407.067l.312.105.164-.285c.438-.762 1.207-1.219 2.063-1.219 1.304 0 2.383 1.102 2.398 2.45l.004.328.32.062c.73.14 1.258.801 1.258 1.567 0 .879-.691 1.593-1.539 1.593zm0 0M8.629 7.227C8.629 6 7.629 5 6.399 5a2.23 2.23 0 0 0-2.227 2.227 2.228 2.228 0 0 0 4.457 0zm-3.656 0a1.429 1.429 0 0 1 2.855 0c0 .789-.64 1.43-1.43 1.43a1.43 1.43 0 0 1-1.425-1.43zm0 0M20.531 12.496c.16.149.414.137.563-.027a.396.396 0 0 0-.024-.563l-4.8-4.402a.414.414 0 0 0-.29-.106.424.424 0 0 0-.277.133l-3.918 4.29-1.894-1.9a.4.4 0 0 0-.547-.015l-6.809 5.992a.405.405 0 0 0-.035.567.396.396 0 0 0 .563.035l6.527-5.746 4.12 4.121a.4.4 0 0 0 .567-.566l-1.925-1.922 3.671-4.02zm0 0"/>
    <path d="M10.8 19.398H.8V2.602h21.598v11.597a.401.401 0 0 0 .8 0l.001-12a.4.4 0 0 0-.398-.398H.398A.4.4 0 0 0 0 2.199v17.602a.4.4 0 0 0 .398.398h10.403a.4.4 0 0 0 0-.8zm0 0"/>
</svg>
